X: 24325
T: Lough Mountain
R: reel
M: 4/4
K: Edorian
BAEE ~FEFA|B2eB dBAF|ABAG FDFA|dfed BAFA|
BAEE ~FEFA|B2eB dBAF|ABde fdef|dBAF BAFA:|
|:e2ed BABd|egfd edBc|d2dd ADFA|dfed BAF2|
e2ed BABd|egfd edBc|d2dc defe|1 dBAF BAEF:|2 dBAF BAFA||

